X:13
T:Jim Keefe's Polka
M:2/4
L:1/8
R:polka
K:D
|: d2 e>d | =cA A2 | d c/d/ ef | g2 fe |
d2 e>d | =cA Ag | f/g/ a ge |1 d2 dA :|2 d2 de ||
|: f>e fd | g>f ge | f>e fa | ge =ce |
f>e fd | g>f ge | f/g/ a ge |1 d2 de :|2 d2 dA ||
